hideturtle
forward 100
right 90
back 10
left 90
forward 100
right 90
forward 120
right 90
forward 100
right 90
forward 10
left 90
forward 100
right 90
forward 100
right 90
forward 100
right 90
forward 100
penup
left 90
forward 60
pendown
left 90
forward 30
left 90
forward 20
left 90
forward 30
left 90
forward 20
penup
left 90
forward 80
pendown
left 90
forward 20
left 90
forward 30
left 90
forward 20
left 90
forward 30